Sources/FrostedUI/Resources/Icons.xcassets/cursor24.imageset/cursor-24.svg

<svg width="24" height="24" viewBox="0 0 24 24" fill="none" xmlns="http://www.w3.org/2000/svg" data-fui-icon="true">
  <path
    d="M2.03784 5.22921C1.33503 3.24629 3.24633 1.335 5.22925 2.0378L21.0564 7.65011C23.2123 8.41457 23.2942 11.4325 21.1833 12.3132L17.4187 13.8835L20.6423 17.1071C21.6186 18.0835 21.6186 19.666 20.6423 20.6423C19.666 21.6186 18.0835 21.6186 17.1072 20.6423L13.8835 17.4187L12.3132 21.1833C11.4326 23.2941 8.41462 23.2122 7.65015 21.0564L2.03784 5.22921ZM4.72827 3.45089C3.93524 3.16998 3.17002 3.9352 3.45093 4.72823L9.06323 20.5554C9.36899 21.4176 10.5771 21.4506 10.9294 20.6062L12.9304 15.8083C13.0268 15.5777 13.2321 15.4105 13.4773 15.362C13.7226 15.3136 13.9762 15.3904 14.1531 15.5671L18.1677 19.5817C18.5582 19.9723 19.1913 19.9723 19.5818 19.5817C19.9723 19.1912 19.9723 18.5582 19.5818 18.1677L15.5671 14.153C15.3905 13.9762 15.3136 13.7225 15.3621 13.4773C15.4106 13.2321 15.5778 13.0267 15.8083 12.9304L20.6062 10.9294L20.7546 10.8532C21.4433 10.429 21.3637 9.3498 20.5554 9.06319L4.72827 3.45089Z"
    fill="currentColor"
  />
</svg>

<svg xmlns="http://www.w3.org/2000/svg" width="24" height="24" fill="none" data-fui-icon="true" viewBox="0 0 24 24"><path fill="currentColor" d="M2.038 5.23c-.703-1.984 1.208-3.895 3.191-3.192L21.056 7.65c2.156.765 2.238 3.782.127 4.663l-3.764 1.57 3.223 3.224a2.5 2.5 0 1 1-3.535 3.535l-3.223-3.223-1.57 3.764c-.881 2.111-3.9 2.03-4.664-.127zm2.69-1.78a1.001 1.001 0 0 0-1.277 1.278l5.612 15.827c.306.863 1.514.896 1.866.051l2.001-4.798a.75.75 0 0 1 1.223-.24l4.015 4.014a1 1 0 1 0 1.414-1.414l-4.015-4.015a.75.75 0 0 1 .241-1.223l4.798-2 .149-.077c.688-.424.609-1.503-.2-1.79z"/></svg>
